frontend/public/svg/interface/call.svg

<svg width="164" height="146" viewBox="0 0 164 146" fill="none" xmlns="http://www.w3.org/2000/svg">
<g clip-path="url(#clip0)">
<path d="M51.3583 51.8096C52.2841 50.6252 53.2138 49.444 54.1474 48.2665C56.5303 45.2496 58.9935 42.1294 61.3143 38.9813C64.3123 34.9114 64.1078 33.0329 60.2747 29.4204C59.9559 29.1207 59.6195 28.839 59.2825 28.5586C59.0238 28.3409 58.7599 28.123 58.5064 27.895L55.5071 25.1821C52.6242 22.5748 49.6429 19.8786 46.7355 17.2034C44.5263 15.1711 42.3256 13.131 40.1333 11.0827C37.2051 8.35777 34.1773 5.53907 31.169 2.79866C27.8055 -0.269924 25.8799 -0.264639 22.5953 2.82074C19.466 5.75948 16.3062 8.7698 13.2506 11.6801C10.5184 14.2827 7.78144 16.88 5.03978 19.4727C3.83682 20.5913 2.87905 21.9473 2.22689 23.4542C1.57473 24.961 1.24233 26.5865 1.25067 28.2281C1.27394 30.8053 1.6011 33.3709 2.22543 35.8717C3.81209 42.6956 7.21634 48.8142 10.5094 54.7349L11.3244 56.2037C19.8676 71.6315 29.1121 83.9401 39.5939 93.8326C41.5343 95.6627 43.3713 97.688 45.15 99.6467C47.5215 102.381 50.0777 104.949 52.8007 107.334C60.7773 113.997 69.5324 120.765 79.564 128.026C87.822 134.003 95.0878 138.328 102.422 141.639C107.784 144.136 113.621 145.455 119.538 145.506C122.072 145.506 124.6 145.248 127.082 144.738L127.474 144.658C131.243 143.889 135.141 143.093 138.421 140.469C140.049 139.166 141.826 137.969 143.544 136.811C144.445 136.204 145.346 135.596 146.232 134.971C147.026 134.412 147.838 133.873 148.651 133.333C150.656 132.077 152.557 130.663 154.335 129.101C159.255 124.538 158.224 121.379 154.78 117.462C151.016 113.18 147.342 108.682 143.784 104.334C142.369 102.602 140.95 100.873 139.529 99.1467C138.411 97.794 137.3 96.436 136.195 95.0716C134.061 92.4482 131.855 89.7355 129.604 87.1308C125.325 82.1803 123.513 82.0214 118.202 86.1307C114.531 88.9732 110.828 91.8926 107.242 94.7183C104.984 96.498 102.724 98.2752 100.461 100.05C99.7805 100.583 99.0671 101.079 98.3769 101.558L97.9448 101.858C96.5619 100.415 95.1816 98.9723 93.8051 97.5297C79.769 82.858 65.2676 67.694 49.4133 54.1697C49.5756 53.9759 49.7321 53.7897 49.8816 53.6107C50.4327 52.9499 50.9055 52.3865 51.3583 51.8096ZM42.1844 56.1248C52.0161 66.6714 61.8423 77.2247 71.663 87.7839L85.5342 102.689C86.1163 103.316 86.7095 103.934 87.302 104.551C88.2961 105.585 89.3239 106.661 90.2819 107.752C93.3685 111.269 96.9261 111.711 102.18 109.228C103.837 108.359 105.385 107.296 106.791 106.062C107.266 105.677 107.74 105.294 108.22 104.925C111.883 102.117 115.529 99.2901 119.249 96.4095L123.324 93.2518L148.231 123.62C146.954 124.509 145.675 125.432 144.432 126.329C140.989 128.92 137.392 131.299 133.661 133.455C130.704 135.081 126.971 135.6 123.401 135.994C115.833 136.829 108.95 135.542 102.931 132.178L101.767 131.525C95.8032 128.192 89.6364 124.746 83.9792 120.802C76.1694 115.438 68.6566 109.655 61.4734 103.479C57.9785 100.326 54.6446 97 51.4844 93.5121C49.2328 91.1096 46.9062 88.6257 44.4987 86.3C38.2983 80.3147 32.4496 73.0786 26.0939 63.5256C20.4529 55.0504 16.1328 46.1665 12.6496 38.5952C11.3256 35.7159 10.0326 32.2924 10.4757 28.727C10.5641 27.3427 11.0416 26.0118 11.8535 24.8863C15.704 20.5205 19.7388 16.1795 23.6405 11.9823C24.7517 10.7876 25.8621 9.59179 26.9716 8.39453C35.7601 18.3219 45.3526 27.6524 54.4489 36.2755C51.5445 40.2561 48.1576 43.8619 44.3655 47.0105C44.1281 47.2043 43.8835 47.3885 43.639 47.5739C43.1594 47.9247 42.6993 48.3016 42.2607 48.7025C39.6922 51.1334 39.6689 53.4245 42.1844 56.1223V56.1248Z" fill="black"/>
<path d="M129.019 13.725C115.969 5.18984 100.415 0.898082 80.0717 0.222997C72.3499 -0.0838615 60.0848 2.40666 53.1463 4.87445C51.946 5.29977 50.8145 5.8983 49.788 6.65101C48.319 7.74019 47.8941 9.24748 48.6521 10.6823C49.5027 12.2915 50.9341 11.8692 51.7892 11.6179C51.9554 11.5688 52.1217 11.5198 52.2853 11.481C61.8648 9.24645 69.2717 8.25093 76.2859 8.25093H76.3848C84.0847 8.29661 91.7554 9.20381 99.2527 10.9561C117.063 14.9886 130.972 23.5355 141.775 37.0857C151.51 49.2955 155.104 63.1467 152.763 79.4303C152.202 83.4136 151.12 87.3059 149.542 91.0076C148.469 93.527 148.338 95.635 149.13 97.6331C149.3 98.1887 149.591 98.701 149.981 99.1325C150.37 99.5641 150.851 99.9045 151.387 100.131C151.704 100.241 152.039 100.298 152.375 100.297C153.136 100.272 153.877 100.049 154.525 99.6513C156.353 98.6099 157.66 96.9664 158.638 94.4773C164.546 79.4497 164.855 64.6061 159.556 50.3594C154.122 35.7478 143.848 23.4237 129.019 13.725Z" fill="black"/>
<path d="M126.261 74.7181C126.927 75.6225 127.952 76.7421 129.487 76.7421C129.753 76.7414 130.018 76.7098 130.276 76.6484C132.231 76.1897 132.586 74.2717 132.757 73.3498C133.557 68.9543 132.998 64.4201 131.154 60.3502C129.678 56.9773 128.249 54.039 126.783 51.3671C122.539 43.6291 118.055 38.2743 112.675 34.5158C101.628 26.7978 92.2354 23.0949 82.2212 22.5077C77.4347 22.2279 73.6256 22.8357 70.2375 24.4223C68.0499 25.4476 68.1075 26.9833 68.3365 27.8077C68.8242 29.5635 70.471 29.4956 71.4548 29.4524C72.1812 29.422 72.9542 29.3575 73.8177 29.2587C75.1223 29.1062 76.4257 28.9426 77.7297 28.7786L79.3513 28.5767C84.5065 28.6335 89.8072 29.9329 96.0277 32.6604C107.103 37.5178 114.758 44.3441 119.429 53.5272C120.198 55.0363 120.912 56.6118 121.604 58.1358C122.085 59.1953 122.566 60.2555 123.068 61.3046C124.359 63.7527 124.947 66.5085 124.767 69.2696C124.566 71.2083 125.099 73.1522 126.261 74.7181Z" fill="black"/>
</g>
<defs>
<clipPath id="clip0">
<rect width="163" height="146" fill="white" transform="translate(0.777344)"/>
</clipPath>
</defs>
</svg>

<svg xmlns="http://www.w3.org/2000/svg" width="164" height="146" fill="none" viewBox="0 0 164 146"><g fill="#000" clip-path="url(#a)"><path d="M51.358 51.81a652 652 0 0 1 2.79-3.544c2.382-3.016 4.845-6.137 7.166-9.285 2.998-4.07 2.794-5.948-1.04-9.56a20 20 0 0 0-.992-.862c-.258-.218-.522-.436-.776-.664l-2.999-2.713a1343 1343 0 0 1-8.771-7.979q-3.314-3.048-6.603-6.12c-2.928-2.725-5.956-5.544-8.964-8.284-3.364-3.069-5.29-3.064-8.574.022a1764 1764 0 0 0-9.344 8.86q-4.1 3.903-8.211 7.792a11.88 11.88 0 0 0-3.79 8.755c.024 2.577.351 5.143.975 7.644 1.587 6.824 4.991 12.942 8.284 18.863l.815 1.469c8.544 15.428 17.788 27.736 28.27 37.629 1.94 1.83 3.777 3.855 5.556 5.814a79 79 0 0 0 7.65 7.687c7.977 6.663 16.732 13.431 26.764 20.692 8.258 5.977 15.524 10.302 22.858 13.613a41.4 41.4 0 0 0 17.116 3.867c2.534 0 5.062-.258 7.544-.768l.392-.08c3.769-.769 7.667-1.565 10.947-4.189 1.628-1.303 3.405-2.5 5.123-3.658.901-.607 1.802-1.215 2.688-1.84.794-.559 1.606-1.098 2.419-1.638a44 44 0 0 0 5.684-4.232c4.92-4.563 3.889-7.722.445-11.639-3.764-4.282-7.438-8.78-10.996-13.128a1818 1818 0 0 0-4.255-5.187 529 529 0 0 1-3.334-4.075c-2.134-2.624-4.34-5.337-6.591-7.941-4.279-4.95-6.091-5.11-11.402-1-3.671 2.842-7.374 5.762-10.96 8.587q-3.387 2.67-6.781 5.332a45 45 0 0 1-2.084 1.508l-.432.3a2750 2750 0 0 1-4.14-4.328C79.77 82.858 65.268 67.694 49.413 54.17q.245-.29.469-.56c.55-.66 1.024-1.224 1.476-1.8m-9.174 4.315a37493 37493 0 0 1 29.479 31.659l13.871 14.905c.582.627 1.175 1.245 1.768 1.862.994 1.034 2.022 2.11 2.98 3.201 3.087 3.517 6.644 3.959 11.898 1.476a23.6 23.6 0 0 0 4.611-3.166c.475-.385.949-.768 1.429-1.137 3.663-2.808 7.309-5.635 11.029-8.516l4.075-3.157 24.907 30.368c-1.277.889-2.556 1.812-3.799 2.709a107 107 0 0 1-10.771 7.126c-2.957 1.626-6.69 2.145-10.26 2.539-7.568.835-14.451-.452-20.47-3.816l-1.164-.653c-5.964-3.333-12.13-6.779-17.788-10.723a262 262 0 0 1-22.506-17.323 140 140 0 0 1-9.989-9.967c-2.251-2.402-4.578-4.886-6.985-7.212-6.2-5.985-12.05-13.221-18.405-22.774-5.641-8.476-9.961-17.36-13.444-24.93-1.324-2.88-2.617-6.304-2.174-9.869a7.37 7.37 0 0 1 1.377-3.84c3.851-4.367 7.886-8.707 11.788-12.905q1.666-1.791 3.33-3.587c8.79 9.927 18.382 19.257 27.478 27.88a59.7 59.7 0 0 1-10.083 10.736c-.238.193-.483.377-.727.563q-.72.526-1.378 1.129c-2.569 2.43-2.592 4.721-.077 7.42zm86.835-42.4C115.969 5.19 100.415.898 80.072.223 72.35-.084 60.085 2.407 53.146 4.874a13 13 0 0 0-3.358 1.777c-1.469 1.09-1.894 2.596-1.136 4.031.85 1.61 2.282 1.187 3.137.936q.25-.077.496-.137c9.58-2.235 16.987-3.23 24-3.23h.1c7.7.046 15.37.953 22.868 2.705 17.81 4.033 31.719 12.58 42.522 26.13 9.735 12.21 13.329 26.06 10.988 42.344a45.8 45.8 0 0 1-3.221 11.578c-1.073 2.519-1.204 4.627-.412 6.625a3.97 3.97 0 0 0 2.257 2.498c.317.11.652.167.988.166a4.4 4.4 0 0 0 2.15-.646c1.828-1.041 3.135-2.685 4.113-5.174 5.908-15.027 6.217-29.87.918-44.118-5.434-14.611-15.708-26.935-30.537-36.634"/><path d="M126.261 74.718c.666.904 1.691 2.024 3.226 2.024q.4 0 .789-.094c1.955-.458 2.31-2.376 2.481-3.298.8-4.396.241-8.93-1.603-13-1.476-3.373-2.905-6.311-4.371-8.983-4.244-7.738-8.728-13.093-14.108-16.851-11.047-7.718-20.44-11.421-30.454-12.008-4.786-.28-8.595.328-11.984 1.914-2.187 1.026-2.13 2.561-1.9 3.386.487 1.756 2.134 1.688 3.118 1.644.726-.03 1.5-.095 2.363-.193 1.304-.153 2.608-.316 3.912-.48l1.621-.202c5.156.056 10.456 1.356 16.677 4.083 11.075 4.858 18.73 11.684 23.401 20.867.769 1.51 1.483 3.085 2.175 4.609.481 1.06.962 2.12 1.464 3.169a15 15 0 0 1 1.699 7.965 7.8 7.8 0 0 0 1.494 5.448"/></g><defs><clipPath id="a"><path fill="#fff" d="M.777 0h163v146h-163z"/></clipPath></defs></svg>
